chrome/icons/star.svg

<svg width="16" height="16" viewBox="0 0 16 16" fill="none" xmlns="http://www.w3.org/2000/svg">
<g clip-path="url(#clip0_51_74)">
<path d="M3.71037 10.1368L0.148728 6.66906C0.049576 6.56991 0 6.4525 0 6.31681C0 6.19678 0.0417483 6.08719 0.125245 5.98804C0.208741 5.8889 0.310502 5.82887 0.430528 5.808L5.34638 5.09568L7.55382 0.633836C7.59557 0.55034 7.65819 0.483804 7.74168 0.434227C7.82517 0.384652 7.91128 0.359863 8 0.359863C8.08872 0.359863 8.17483 0.384652 8.25832 0.434227C8.34181 0.483804 8.40443 0.55034 8.44618 0.633836L10.6536 5.09568L15.5695 5.808C15.6947 5.82887 15.7977 5.88628 15.8787 5.98022C15.9596 6.07415 16 6.18374 16 6.30898C16 6.44988 15.9504 6.56991 15.8513 6.66906L12.2896 10.1368L13.1272 15.037C13.1324 15.0578 13.135 15.0865 13.135 15.1231C13.135 15.2588 13.0854 15.3762 12.9863 15.4753C12.8872 15.5745 12.7697 15.6241 12.6341 15.6241C12.5453 15.6241 12.4671 15.6058 12.3992 15.5693L8 13.2522L3.60078 15.5693C3.53295 15.6058 3.45467 15.6241 3.36595 15.6241C3.23026 15.6241 3.11285 15.5745 3.0137 15.4753C2.91455 15.3762 2.86497 15.2588 2.86497 15.1231C2.86497 15.0865 2.86759 15.0578 2.8728 15.037L3.71037 10.1368ZM4.03131 14.2072L8 12.1172L11.9687 14.2072C11.8434 13.4662 11.7195 12.7291 11.5969 11.9959C11.4742 11.2627 11.3451 10.5255 11.2094 9.78452L14.4266 6.65341L9.98826 6.01153C9.64905 5.33834 9.31637 4.66776 8.99022 3.99978C8.66406 3.33181 8.33398 2.66123 8 1.98804C7.66602 2.66123 7.33594 3.33181 7.00978 3.99978C6.68363 4.66776 6.35095 5.33834 6.01174 6.01153L1.57339 6.65341L4.79061 9.78452C4.65492 10.5255 4.52576 11.2627 4.40313 11.9959C4.2805 12.7291 4.15656 13.4662 4.03131 14.2072Z" fill="context-fill" fill-opacity="context-fill-opacity"/>
</g>
<defs>
<clipPath id="clip0_51_74">
<rect width="16" height="16" fill="white"/>
</clipPath>
</defs>
</svg>

<svg xmlns="http://www.w3.org/2000/svg" width="16" height="16" fill="none" viewBox="0 0 16 16"><g clip-path="url(#a)"><path fill="context-fill" fill-opacity="context-fill-opacity" d="M3.71 10.137.15 6.669A.48.48 0 0 1 0 6.317q0-.18.125-.329.126-.15.306-.18l4.915-.712L7.554.634a.5.5 0 0 1 .188-.2A.5.5 0 0 1 8 .36a.5.5 0 0 1 .258.074q.126.074.188.2l2.208 4.462 4.916.712a.505.505 0 0 1 .43.501q0 .21-.149.36l-3.561 3.468.837 4.9q.008.031.008.086 0 .204-.149.352-.148.15-.352.15a.5.5 0 0 1-.235-.056L8 13.252 3.6 15.57a.5.5 0 0 1-.234.055.48.48 0 0 1-.352-.149.48.48 0 0 1-.141-.438zm.321 4.07L8 12.117l3.969 2.09q-.189-1.11-.372-2.211-.184-1.1-.388-2.211l3.218-3.132-4.439-.641Q9.48 5.002 8.99 4T8 1.988Q7.499 2.998 7.01 4 6.52 5 6.012 6.012l-4.439.641 3.218 3.132q-.204 1.111-.388 2.21-.183 1.1-.372 2.212"/></g><defs><clipPath id="a"><path fill="#fff" d="M0 0h16v16H0z"/></clipPath></defs></svg>
